X:1
T:Misirlou
T:Misirlou
T:Pulp fiction
T:JBB juillet 2009
T:Twist = 176
T:Statocaster
T:Grec
C:traditional greck
Z:All Rights Reserved
L:1/8
Q:1/4=120
M:4/4
K:G
V:1 treble nm="MusicXML Part"
%%MIDI program 0
V:1
|:S"E7" E3 =F ^G3 A | B3 c ^d2 c2 | B8- | B8 | E3 =F ^G3 A | B3 c ^d2 c2 | B8- | B8 | %8
"F" c B2 c B2 A2 | B A2 B A2 ^G2 |"E" ^G8- | G6- GE |"F" B A2 B AB/A/ ^G2 | A^G/A/ GA (3G2 =F2 G2 | %14
"E" E8 ||1 z2 [be']6 :|2"^Trumpet" z E^DE =F^FG^G ||"Am" A8- | A4- A2 ^GA |"G" B8- | B4 B2 AB | %21
"F" c6 Bc |"B7" ^d6 d2 |"E" e8- | e8 |"F" z =fef e2 d2 | e2 de d3 c |"E" B8- | B8 | %29
"F" c2 Bc B2 A2 | B2 AB (3A2 ^G2 =F2 |"E" E8 | z E^DE =F^FG^G ||"Am""^Strato" [A,-A]8 | A,6 ^G,A, | %35
"G" B,8- | B,6 A,B, |"F" C6 B,C |"B7" ^D4 C2 DG, |"E" E8- | E8 |"F" =F2 EF E/F/E D2 | %42
 ED/E/ DE D2 C2 |"E" B,8- | B,6- B,E, |"F" D2 CD C2 B,2 | (3B,2 ^G,2 B,2 G,3 =F, |"E" E,8- | %48
 E,8S |] %49

